!!!SOCIAL_FUNCTION:	songs of the sun dance
!!!PDT:	1918

Specific Region: Dakotas, Minnesota, Montana, Nebraska
!!!REG: Dakotas and Montana
!!!LING_GROUP: Siouan
!!!LANG: Tone
!!!OTL@ENG: Song for Securing Fair Weather
!!!ONM: No. 4
**kern
*Imale
*clefF4
*k[b-e-a-d-g-c-]
*M2/4
*MM72
16e-
8.e-
16e-
=1
(4..e-
16c-)
=2
4c-
4e-
=3
16d-
8.c-
16B-
8.B-
=4||
*M3/4
8B-
[8B-
4..B-]
16B-
=5||
*M2/4
4B-
12e-
12c-
12c-
=6||
*M3/4
2.B-
=7
!!!RNB: Dotted eighth note in bar 7 does not have dot in source
8c-
8B-
16G-
8.G-
8F
8F
=8||
*M2/4
[2E-
=9
4E-]
4BB-
=10
8.F
16F
4F
=11
16F
8.E-
4E-
=12||
*M2/4
8F
8E-
16BB-
8.BB-
=13
2BB-
=14
8BB-
8BB-
[4BB-
=15
4BB-]
4BB-
==
*-
!!!CNT: Native American -- Sioux
!!!MRD: 1911/07//-1914///
!!!OCL: Frances Densmore
!!!YOR1: Teton Sioux Music, Bulletin 61,
!!!YOR2: Bureau of American Ethnology, Smithsonian Institution
!!!PPR: Government Printing Office
!!!PPP: Washington, D.C.
!!!PDT: 1918///
!!!ENC: Craig Stuart Sapp
!!!END: 2002/03/25/
!!!EEV: 2002/03/31/
!!!AGN: Ceremonial Song/Song of the Sun Dance
!!!MPN@@SIO: Zintka'la-lu'ta
!!!MPN@ENG: Red Bird
!!!TXO: Teton Sioux
!!!MLC: Standing Rock Reservation, South Dakota, United States of America
!!!ARL: 45.9/-100.7#
!!!catalog: Catalogue No. 497
!!!PPG: 99
!!!EFL: 4/245
!!!VTS: 1912779895
